X:1
T:Onward and Upward
T:Onward and Upward
T:William Thomas Giffe
T:William Thomas Giffe, 1898
T:Public Domain Courtesy of the Cyber Hymnal™
T:Public Domain Courtesy of the Cyber Hymnal™
C:William Thomas Giffe
Z:Public Domain
Z:Courtesy of the Cyber Hymnal™
%%score ( 1 2 ) ( 3 4 )
L:1/8
Q:1/4=85
M:6/8
K:Bb
V:1 treble 
V:2 treble 
V:3 bass 
V:4 bass 
V:1
 [Fd][Ec][DB] [Ec][DB][EG] | [DF][B,D][CE] [DF]3 | [DF][EG][EA] [DB][Ec][Fd] | [Fd][Ec][EG] [Ec]3 | %4
w: 1.~On- ward and up- ward, go|forth in thy might,|On- ward and up- ward for|God and the right;|
w: 2.~On- ward! the prize and high|call- ing to win;|On- ward, for Je- sus and|vic- tory o’er sin;|
w: 3.~Up- ward, look up- ward, O|mor- tal, and see;|Je- sus is stand- ing and|plead- ing for thee;|
 [Fd][Ec][DB] [Ec][DB][EG] | [DF][B,D][CE] [DF]3 | [DF][DB][Ec] [Fd][Ec][DB] | %7
w: On- ward and up- ward from|dark- ness to light,|Brave- ly and cheer- ful- ly,|
w: On- ward! the work of the|Mas- ter be- gin;|Brave- ly and cheer- ful- ly,|
w: Up- ward, yes, up- ward, look|now and be free;|Brave- ly and cheer- ful- ly,|
 [Ec][EG][EA] [DB]3 ||"^Refrain" F3 B3 | G3 B3 | [FA][FA][FA] [FA][DB][Fc] | [Fd]6 | e3 G3 | %13
w: Christ- ian, press on.||||||
w: Christ- ian, press on.|On- ward,|up- ward,|brave- ly and cheer- ful- ly|go;|On- ward,|
w: Christ- ian, press on.||||||
 B3 F3 z | [DF][DB][Fd] [Fc]2 [EA] | [DB]6 |] %16
w: |||
w: up- ward,|God and the right to|know.|
w: |||
V:2
 x6 | x6 | x6 | x6 | x6 | x6 | x6 | x6 || (DDD) (FFF) | (EEE) (GGG) | x6 | x6 | (GGG) (EEE) | %13
 (DDD) (DD) x2 | x6 | x6 |] %16
V:3
 [B,,B,][B,,B,][B,,B,] [B,,B,][B,,B,][B,,B,] | [B,,B,][B,,F,][B,,F,] [B,,B,]3 | %2
w: ~ ~ ~ ~ ~ ~|~ ~ ~ ~|
 [F,B,][F,B,][F,C] [F,B,]F,[F,B,] | [F,B,][F,A,][F,A,] [F,A,]3 | %4
w: ~ ~ ~ ~ ~ ~|~ ~ ~ ~|
 [B,,B,][B,,B,][B,,B,] [B,,B,][B,,B,][B,,B,] | [B,,B,][B,,F,][B,,F,] [B,,B,]3 | %6
w: ~ ~ ~ ~ ~ ~|~ ~ ~ ~|
 [B,,B,][B,,B,][B,,B,] [B,,B,][C,F,][D,F,] | [F,A,][F,B,][F,C] [B,,B,]3 || %8
w: ~ ~ ~ ~ ~ ~|~ ~ ~ ~|
 [B,,B,][B,,B,][B,,B,] [B,,D][B,,D][B,,D] | [E,B,][E,B,][E,B,] [E,E][E,E][E,E] | %10
w: On- ward and up- ward, yes,|on- ward and up- ward, yes|
 [F,C][F,C][F,C] [F,C][F,B,][F,A,] | [B,,B,]6 | [E,B,][E,B,][E,B,] [E,B,][E,B,][E,B,] | %13
w: ~ ~ ~ ~ ~ ~|~|On- ward and up- ward, yes,|
 [B,,B,][B,,B,][B,,B,] [B,,B,][B,,B,] z x | [F,B,][F,B,][F,B,] [F,A,]2 F, | [B,,F,]6 |] %16
w: on- ward and up- ward,|||
V:4
 x6 | x6 | x4 F, x | x6 | x6 | x6 | x6 | x6 || x6 | x6 | x6 | x6 | x6 | x7 | x5 F, | x6 |] %16

